X:144
T:Waltzes simple chords 26
M:3/4
L:1/8
K:Em
D2 [G2G,2B,2D2] B2 | d2 [g2G,2B,2D2]>g2 | fg [a2C,2E,2G,2] g2 | e2 [e2G,2B,2D2] d2 | d2 [D2D,2F,2A,2] F2 |
A2 [d2D,2F,2A,2]>d2 | ^cd [e2D,2F,2A,2=C2] d2 | c2 [B4G,4B,4D4] | BA [G2G,2B,2D2] B2 |
d2 [g2G,2B,2D2]>g2 | fg [a2C,2E,2G,2] g2 | e2 [e2G,2B,2D2] d2 | d2 [D2D,2F,2A,2] F2 |
A2 [d2D,2F,2A,2]>d2 | ^cd [=c2D,2F,2A,2C2] B2 | A2 [G4G,4B,4D4] | BA [G2G,2B,2D2] B2 |
e2 [d4G,4B,4D4] | d2 [G2G,2B,2D2] B2 | e2 [d4G,4B,4D4] | d2 [D2D,2F,2A,2] F2 |
A2 [d2D,2F,2A,2]>d2 | ^cd [e2D,2F,2A,2=C2] d2 | c2 [B4G,4B,4D4] | BA [G2G,2B,2D2] B2 |
e2 [d4G,4B,4D4] | d2 [G2G,2B,2D2] B2 | e2 [d4G,4B,4D4] | d2 [D2D,2F,2A,2] F2 |
A2 [d2D,2F,2A,2]>d2 | ^cd [=c2D,2F,2A,2C2] B2 | A2 [G4G,4B,4D4] |


